X: 76
T: The Halting March
B: begged borrowed and stolen
B: ralph
B: steve tunes
M:4/4
L:1/8
R: reel
Q: 1/4=140
K:Adorian
V:1 
|:"Am"A2 (3Bcd e e2 d|e>d ef ec A2|"G"G2 Bc d d2 e|dB GB d2 cB|
"Am"A2 (3Bcd e e2 d|e>d ef ec A2|a g2 e "G"d c2 B|"Am"A>B "Em"AG "Am"A4:||
"Am"a a2 g e d2e|"G"g>a ge dB G2|"Am"a a2 g e d2 e|"G"g>a ge g2 a/g/e/g/|
"Am"a a2 g e d2 e|"G"g>a ge dB G2|"Am"A>B cd "G"e2 dB|"Am"A>B "Em"cd "Am"e2e2|
"Am"a a2 g e d2 e|"G"g>a ge dB G2|"Am"A>B cd "G"e2 dB|"Am"A>B "Em"AG "Am"A4||
% abcbook-tune_id 627e2b1f20bdc66989e7a408


% abcbook-boost 0
% abcbook-tablature 
% abcbook-transpose 
% abcbook-lastupdated 1666012508389
% abcbook-soundfonts 
% abcbook-repeats 3


